svg/m/GD.svg

<svg width="20" height="15" viewBox="0 0 20 15" fill="none" xmlns="http://www.w3.org/2000/svg">
<mask id="mask0" mask-type="alpha" maskUnits="userSpaceOnUse" x="0" y="0" width="20" height="15">
<rect width="20" height="15" fill="white"/>
</mask>
<g mask="url(#mask0)">
<path fill-rule="evenodd" clip-rule="evenodd" d="M0 0H20V13.75C20 14.4404 19.4404 15 18.75 15H1.25C0.559644 15 0 14.4404 0 13.75V0Z" fill="#C51918"/>
<path fill-rule="evenodd" clip-rule="evenodd" d="M3.75 3.75H16.25V11.25H3.75V3.75Z" fill="#FECA00"/>
<mask id="mask1" mask-type="alpha" maskUnits="userSpaceOnUse" x="3" y="3" width="14" height="9">
<path fill-rule="evenodd" clip-rule="evenodd" d="M3.75 3.75H16.25V11.25H3.75V3.75Z" fill="white"/>
</mask>
<g mask="url(#mask1)">
<path fill-rule="evenodd" clip-rule="evenodd" d="M3.75 3.75L10 7.5L3.75 11.25V3.75Z" fill="#23875F"/>
<path fill-rule="evenodd" clip-rule="evenodd" d="M16.25 3.75L10 7.5L16.25 11.25V3.75Z" fill="#23875F"/>
<mask id="mask2" mask-type="alpha" maskUnits="userSpaceOnUse" x="10" y="3" width="7" height="9">
<path fill-rule="evenodd" clip-rule="evenodd" d="M16.25 3.75L10 7.5L16.25 11.25V3.75Z" fill="white"/>
</mask>
<g mask="url(#mask2)">
</g>
<path fill-rule="evenodd" clip-rule="evenodd" d="M10 10C11.3807 10 12.5 8.88071 12.5 7.5C12.5 6.11929 11.3807 5 10 5C8.61929 5 7.5 6.11929 7.5 7.5C7.5 8.88071 8.61929 10 10 10Z" fill="#C51918"/>
<path fill-rule="evenodd" clip-rule="evenodd" d="M9.95591 8.32079L8.66158 9.21856L9.07517 7.6809L8.125 6.69863L9.41158 6.64552L9.95591 5.125L10.5002 6.64552H11.7846L10.8367 7.6809L11.3114 9.12781L9.95591 8.32079Z" fill="#FECA00"/>
</g>
<path fill-rule="evenodd" clip-rule="evenodd" d="M5.48543 2.77625L6.19279 2.33762L6.93357 2.7319L6.67411 2.02498L7.19219 1.51913H6.49026L6.19279 0.776245L5.89531 1.51913L5.19219 1.54508L5.71146 2.02498L5.48543 2.77625ZM9.23543 2.77625L9.94279 2.33762L10.6836 2.7319L10.4241 2.02498L10.9422 1.51913H10.2403L9.94279 0.776245L9.64531 1.51913L8.94219 1.54508L9.46146 2.02498L9.23543 2.77625ZM13.6928 2.33762L12.9854 2.77625L13.2115 2.02498L12.6922 1.54508L13.3953 1.51913L13.6928 0.776245L13.9903 1.51913H14.6922L14.1741 2.02498L14.4336 2.7319L13.6928 2.33762ZM5.48483 13.8545L6.19219 13.4158L6.93298 13.8101L6.67352 13.1032L7.19159 12.5973H6.48966L6.19219 11.8545L5.89471 12.5973L5.19159 12.6233L5.71086 13.1032L5.48483 13.8545ZM9.94219 13.4158L9.23483 13.8545L9.46086 13.1032L8.94159 12.6233L9.64471 12.5973L9.94219 11.8545L10.2397 12.5973H10.9416L10.4235 13.1032L10.683 13.8101L9.94219 13.4158ZM12.9848 13.8545L13.6922 13.4158L14.433 13.8101L14.1735 13.1032L14.6916 12.5973H13.9897L13.6922 11.8545L13.3947 12.5973L12.6916 12.6233L13.2109 13.1032L12.9848 13.8545Z" fill="#FECA00"/>
<path fill-rule="evenodd" clip-rule="evenodd" d="M5.39673 7.98254C5.39673 7.98254 5.73333 8.2822 5.91666 8.38422C5.97987 8.14464 5.83883 7.60187 5.83883 7.60187C5.79926 7.47212 5.3652 7.2395 5.3652 7.2395C5.3652 7.2395 5.24328 7.6491 5.39673 7.98254Z" fill="#C51918"/>
<path fill-rule="evenodd" clip-rule="evenodd" d="M5.74737 8.7064C5.74737 8.7064 4.88285 8.3026 4.795 7.73148C4.70714 7.16036 4.89346 6.24988 4.89346 6.24988C4.89346 6.24988 6.29734 6.56936 6.39285 7.25386C6.48836 7.93836 6.17128 8.36838 6.17128 8.36838C6.17128 8.36838 5.84656 7.53395 5.54013 7.4414C5.54013 7.4414 5.54013 8.26837 5.74737 8.7064Z" fill="#FECA00"/>
</g>
</svg>

<svg width="20" height="15" fill="none" xmlns="http://www.w3.org/2000/svg">
  <mask id="a" maskUnits="userSpaceOnUse" x="0" y="0" width="20" height="15">
    <path fill="#fff" d="M0 0h20v15H0z"/>
  </mask>
  <g mask="url(#a)">
    <path fill-rule="evenodd" clip-rule="evenodd" d="M0 0h20v13.75c0 .69-.56 1.25-1.25 1.25H1.25C.56 15 0 14.44 0 13.75V0z" fill="#C51918"/>
    <path fill-rule="evenodd" clip-rule="evenodd" d="M3.75 3.75h12.5v7.5H3.75v-7.5z" fill="#FECA00"/>
    <mask id="b" maskUnits="userSpaceOnUse" x="3" y="3" width="14" height="9">
      <path fill-rule="evenodd" clip-rule="evenodd" d="M3.75 3.75h12.5v7.5H3.75v-7.5z" fill="#fff"/>
    </mask>
    <g mask="url(#b)" fill-rule="evenodd" clip-rule="evenodd">
      <path d="M3.75 3.75L10 7.5l-6.25 3.75v-7.5zm12.5 0L10 7.5l6.25 3.75v-7.5z" fill="#23875F"/>
      <path d="M10 10a2.5 2.5 0 100-5 2.5 2.5 0 000 5z" fill="#C51918"/>
      <path d="M9.956 8.32l-1.294.899.413-1.538-.95-.982 1.287-.053.544-1.521.544 1.52h1.285l-.948 1.036.474 1.447-1.355-.807z" fill="#FECA00"/>
    </g>
    <path fill-rule="evenodd" clip-rule="evenodd" d="M5.485 2.776l.708-.438.74.394-.259-.707.518-.506H6.49L6.193.776l-.298.743-.703.026.52.48-.227.751zm3.75 0l.708-.438.74.394-.259-.707.518-.506h-.702L9.943.776l-.298.743-.703.026.52.48-.227.751zm4.458-.438l-.707.438.225-.751-.519-.48.703-.026.298-.743.297.743h.702l-.518.506.26.707-.741-.394zM5.485 13.855l.707-.44.741.395-.26-.707.519-.506H6.49l-.298-.742-.297.742-.703.026.519.48-.226.752zm4.457-.44l-.707.44.226-.752-.52-.48.704-.026.297-.742.298.742h.702l-.518.506.259.707-.74-.394zm3.043.44l.707-.44.741.395-.26-.707.519-.506h-.702l-.298-.742-.297.742-.703.026.519.48-.226.752z" fill="#FECA00"/>
    <path fill-rule="evenodd" clip-rule="evenodd" d="M5.397 7.983s.336.3.52.401c.063-.24-.078-.782-.078-.782-.04-.13-.474-.363-.474-.363s-.122.41.032.744z" fill="#C51918"/>
    <path fill-rule="evenodd" clip-rule="evenodd" d="M5.747 8.706s-.864-.403-.952-.975c-.088-.57.098-1.481.098-1.481s1.404.32 1.5 1.004c.095.684-.222 1.114-.222 1.114s-.324-.834-.63-.927c0 0 0 .827.206 1.265z" fill="#FECA00"/>
  </g>
</svg>
